X:5117
T:Sporting The Sprickly
M:4/4
R:Reel
L:1/8
Q:180
C:Aidan Crossey
K:D
|:FAAB dfed|B2eB gBcA|FAAB dfed|gBcA d2 d2:||
|:f2af bfaf|gegb afge|f2af bfaf|gBcA d2 d2:||
